packages/icons/src/SVG/visible-solid.svg

<svg width="12" height="12" viewBox="0 0 12 12" fill="none" xmlns="http://www.w3.org/2000/svg">
<path d="M7.75 6C7.75 6.9665 6.9665 7.75 6 7.75C5.0335 7.75 4.25 6.9665 4.25 6C4.25 5.0335 5.0335 4.25 6 4.25C6.9665 4.25 7.75 5.0335 7.75 6Z" fill="#4C505B"/>
<path fill-rule="evenodd" clip-rule="evenodd" d="M6 10C9 10 11.25 7.25 12 5.875C11.125 4.58333 9 2 6 2C3 2 0.875 4.58333 0 5.875C0.75 7.25 3 10 6 10ZM8.75 6C8.75 7.51878 7.51878 8.75 6 8.75C4.48122 8.75 3.25 7.51878 3.25 6C3.25 4.48122 4.48122 3.25 6 3.25C7.51878 3.25 8.75 4.48122 8.75 6Z" fill="#4C505B"/>
</svg>

<!-- Generated by IcoMoon.io -->
<svg version="1.1" xmlns="http://www.w3.org/2000/svg" width="12" height="12" viewBox="0 0 12 12">
<title>visible-solid</title>
<path d="M7.75 6c0 0.967-0.784 1.75-1.75 1.75s-1.75-0.784-1.75-1.75c0-0.967 0.784-1.75 1.75-1.75s1.75 0.784 1.75 1.75z"></path>
<path d="M6 10c3 0 5.25-2.75 6-4.125-0.875-1.292-3-3.875-6-3.875s-5.125 2.583-6 3.875c0.75 1.375 3 4.125 6 4.125zM8.75 6c0 1.519-1.231 2.75-2.75 2.75s-2.75-1.231-2.75-2.75c0-1.519 1.231-2.75 2.75-2.75s2.75 1.231 2.75 2.75z"></path>
</svg>
